fonts/svg/book-16.svg

<?xml version="1.0" encoding="UTF-8" standalone="no"?>
<svg
   xmlns:dc="http://purl.org/dc/elements/1.1/"
   xmlns:cc="http://creativecommons.org/ns#"
   xmlns:rdf="http://www.w3.org/1999/02/22-rdf-syntax-ns#"
   xmlns:svg="http://www.w3.org/2000/svg"
   xmlns="http://www.w3.org/2000/svg"
   xmlns:sodipodi="http://sodipodi.sourceforge.net/DTD/sodipodi-0.dtd"
   xmlns:inkscape="http://www.inkscape.org/namespaces/inkscape"
   width="16"
   height="16"
   viewBox="0 0 16 16"
   version="1.1"
   id="svg1416"
   sodipodi:docname="book-16.svg"
   inkscape:version="1.0.1 (c497b03c, 2020-09-10)">
  <metadata
     id="metadata1422">
    <rdf:RDF>
      <cc:Work
         rdf:about="">
        <dc:format>image/svg+xml</dc:format>
        <dc:type
           rdf:resource="http://purl.org/dc/dcmitype/StillImage" />
      </cc:Work>
    </rdf:RDF>
  </metadata>
  <defs
     id="defs1420" />
  <sodipodi:namedview
     pagecolor="#ffffff"
     bordercolor="#666666"
     borderopacity="1"
     objecttolerance="10"
     gridtolerance="10"
     guidetolerance="10"
     inkscape:pageopacity="0"
     inkscape:pageshadow="2"
     inkscape:window-width="1440"
     inkscape:window-height="900"
     id="namedview1418"
     showgrid="false"
     inkscape:zoom="38.8125"
     inkscape:cx="8"
     inkscape:cy="8"
     inkscape:window-x="0"
     inkscape:window-y="0"
     inkscape:window-maximized="0"
     inkscape:current-layer="svg1416" />
  <path
     fill-rule="evenodd"
     d="M 0,1.75 C 0,1.3357864 0.33578644,1 0.75,1 H 5.003 C 6.23,1 7.32,1.59 8.003,2.501 8.7110033,1.5547583 9.8242051,0.99834275 11.006,1 h 4.245 c 0.414214,0 0.75,0.3357864 0.75,0.75 v 10.5 c 0,0.414214 -0.335786,0.75 -0.75,0.75 h -4.507 c -0.596739,-5e-6 -1.1690392,0.237044 -1.591,0.659 L 8.531,14.28 c -0.2928175,0.292453 -0.7671825,0.292453 -1.06,0 L 6.849,13.659 C 6.4270392,13.237044 5.8547391,12.999995 5.258,13 H 0.75 C 0.33578644,13 0,12.664214 0,12.25 Z M 8.751,12.072 C 9.343,11.701 10.033,11.5 10.743,11.5 H 14.5 v -9 h -3.495 c -1.2426407,0 -2.25,1.0073593 -2.25,2.25 z M 7.251,12.074 7.255,7.001 7.253,4.748 C 7.2518961,3.5061404 6.2448601,2.4999995 5.003,2.5 H 1.5 v 9 h 3.757 c 0.705425,-2.4e-5 1.396552,0.198926 1.994,0.574 z"
     id="path1414"
     sodipodi:nodetypes="sssccssssccccccssscsccscccccccccc" />
</svg>

<svg xmlns="http://www.w3.org/2000/svg" width="16" height="16" viewBox="0 0 16 16"><path fill-rule="evenodd" d="M0 1.75A.75.75 0 01.75 1h4.253c1.227 0 2.317.59 3 1.501A3.744 3.744 0 0111.006 1h4.245a.75.75 0 01.75.75v10.5a.75.75 0 01-.75.75h-4.507a2.25 2.25 0 00-1.591.659l-.622.621a.75.75 0 01-1.06 0l-.622-.621A2.25 2.25 0 005.258 13H.75a.75.75 0 01-.75-.75V1.75zm8.755 3a2.25 2.25 0 012.25-2.25H14.5v9h-3.757c-.71 0-1.4.201-1.992.572l.004-7.322zm-1.504 7.324l.004-5.073-.002-2.253A2.25 2.25 0 005.003 2.5H1.5v9h3.757a3.75 3.75 0 011.994.574z"/></svg>
